apps/tokenlist/data/4217/icons/0x20c000000000000000000000383a23bacb546ab9.svg

<svg width="50" height="50" viewBox="0 0 50 50" fill="none" xmlns="http://www.w3.org/2000/svg">
<circle cx="25" cy="25" r="25" fill="#97FEDD"/>
<path fill-rule="evenodd" clip-rule="evenodd" d="M32.1652 20.8975C30.6636 20.8975 29.643 21.73 29.3514 23.1134H34.979C34.7361 21.6686 33.7052 20.8975 32.1652 20.8975ZM32.0624 17.3077C36.5326 17.3077 39.3675 20.5165 39.3675 24.5214L39.367 26.0144L29.3509 26.0016C29.4417 27.1328 30.7156 28.2597 32.9763 28.2597C34.7318 28.2597 36.0158 27.7783 36.6349 27.2894L38.3854 30.691C37.3475 31.3055 35.1479 32.1295 32.5646 32.1295C27.2453 32.1295 24.5251 28.7321 24.5251 24.5214C24.5251 20.5389 27.4796 17.3077 32.0624 17.3077ZM18.3644 21.3889C17.8651 21.3209 16.7447 21.2292 16.7447 24.2835L16.7007 32.1295H11.5381V17.5966L16.2766 17.58V19.4234C17.4048 17.2346 20.739 16.8747 22.6699 17.7481V23.9386C22.4606 23.9872 22.0771 24.058 21.8839 24.0851C19.333 24.4433 18.3299 22.9448 18.3644 21.3889Z" fill="black"/>
</svg>

<svg xmlns="http://www.w3.org/2000/svg" width="50" height="50" fill="none" viewBox="0 0 50 50"><circle cx="25" cy="25" r="25" fill="#97fedd"/><path fill="#000" fill-rule="evenodd" d="M32.165 20.898c-1.501 0-2.522.832-2.814 2.215h5.628c-.243-1.444-1.274-2.215-2.814-2.215m-.103-3.59c4.47 0 7.306 3.209 7.306 7.213l-.001 1.493-10.016-.012c.09 1.13 1.365 2.258 3.625 2.258 1.756 0 3.04-.482 3.659-.97l1.75 3.401c-1.038.614-3.237 1.439-5.82 1.439-5.32 0-8.04-3.398-8.04-7.609 0-3.982 2.955-7.213 7.537-7.213m-13.698 4.08c-.499-.067-1.62-.159-1.62 2.895l-.043 7.846h-5.163V17.598l4.739-.017v1.843c1.128-2.188 4.462-2.548 6.393-1.675v6.19c-.21.05-.593.12-.786.147-2.551.358-3.554-1.14-3.52-2.696" clip-rule="evenodd"/></svg>
